X: 38571
T: Stolen Bicycle, The
R: jig
M: 6/8
K: Edorian
|:A|Bgf efg|edB AFD|~E3 FEF|GAB =cBA|
Bgf efg|afd def|g2 e fed|Bee e2:|
|:f|gfe fed|e/f/ge dBA|GAB =cBA|Bgf e2 f|
~g3 ~a3|bge def|g2 e dBA|Bee e2:|

